X:1
T:Violin Sonata No. 9, Op.4 - Kreutzer
T:Violin Sonata No. 9, Op.4 - Kreutzer
T:Your Lie in April version
T:Ludwig van Beethoven
C:Ludwig van Beethoven
L:1/8
Q:1/4=55
M:3/4
K:A
V:1 treble nm="Violin" snm="Vln."
V:1
 ([A,Eca]2 [df]2 [Bd]2) | ([GB]2 [Ee]3 [DG]) | [CA]2 [B,Fd]2 [B,Gd]2 | ([A,Ed]2 c4) | z6 |: %5
[K:C][M:4/4][Q:1/4=270] (e2 | .f6) .A2 | .^G2 .E2 .E2 .^G2 | .A2 .E2 .E2 .A2 | .B2 .E2 .E2 .B2 | %10
"_cresc." .c2 .A2 .A2 .c2 | d8 | [G,DBg]8 |!>(! [CGce]6 z2!>)! | z8 | z8 | z4 z2 .A2 | %17
 .^G2 .E2 .E2 .^G2 | .A2"_cresc." .E2 .E2 .A2 |"_cresc." .A2 .E2 .E2 .A2 |"_cresc." B2 z2 z4 | %21
 [G,DB]2 z2 z4 | [G,Ec]2 z2 z4 |!ff! z8 | z2 z4!p! (D2 | d6 A2) | B2 z2 z2!f! BB | ^F^FGG AA^F^F | %28
 B2 z2 z2!p! (B2 | b6 ^f2) | g2 z2 z2!f! GG | ^DDEE ^FFDD | G2 z2 z2 gg | ^ddee ^ffdd | ggaa bbgg | %35
 ^ddee ^ffdd | g2 z2 e'4- | e'2 z2 e'4- | e'2 z2 e'4 | e'2 .c'2 .b2 .a2 | ggaa bbgg | aabb c'c'aa | %42
 bbc'c' d'd'e'e' | =f'f'd'd' bbd'd' | f'f'd'd' bbd'd' | f'f'd'd' c'c'b(b | b) z z2 z4 | %47
 z4 e'e'e'e' | a'a'a'a' =g'g'^f'f' | a'a'^f'f' e'e'^d'd' | e'e'c'c' bb^aa | bb^aa bbbb | e4 z4 | %53
 z8 | z8 | z8 | z8 | z4"^pizz."!f! [A,EAg]2 z2 | z4 [DA=f]2 z2 | z4 [G,DBg]2 z2 | [CFce]2 z2 z4 | %61
 z4 [EBa]2 z2 | z4 [EBb]2 z2 | z4 [^DBb]2 z"^arco" (^d | e4- e2) z (^d | e4- e2) z (^d | %66
 e4- e2) z (^f | .g2) z (^a .b2) z (^d' | e'8) | (d'2 ^c'2) .b2 .c'2 | d'4 a2 z2 | Tb8 | c'8 | %73
 (b2 a2) .^g2 .a2 | !>!b4 e4 | ^f4 B4 | ((b8 | b2) a2) .=g2 a2 | b4 e4 | ^f4 B4 | %80
 be'e'e' e'e'e'e' | e'e'e'e' e'e'e'e' | e'e'g'g' e'e'g'g' | ^d'd'^f'f' d'd'd'd' | e'2 z2 z4 | %85
 .[EBe]2 z2 z4 | Aa^ga ^faea | ^dacd BdAd | G z z2 z4 | [EBe]2 z2 z4 | Aa^ga ^faea | ^dacd BdAd | %92
 (Ge).E.^F .A.G.F.E | (^D^F).B,.D .F.B.A.F | (Ge).E.^F .A.G.F.E | (^D^F).B,.D .F.B.A.F | %96
 (Ge).E.G B,GeG | B,^F^dF B,FdF |"^cresc." [B,E=d-]8 | !fermata!d8 |!pp!!>(! c8-!>)! | c6 z2 | z8 | %103
 z4 z2!f! !^!A2 | ^G.^F.E.F .G.A.B.c | dcB=f edcB | !^!c3 z z4 | z4 z2 !^!A2 | ^G.^F.E.F .G.A.B.c | %109
 dcB=f edcB | !^!c3 z z4 | z4 z2 !^!A2 | ^G.^F.E.F .G.A.B.c | dcB=f edcB | cA=GF EFED | %115
 CFEE CDCB, | A,2 z2 z4 |!ff! [Eca]2 z2 [Eca]2 z2 | [Eca]2 z2 z4 | [EBe]2 z2 z4 | [A,EA]2 z2 z4 |] %121

